X: 88
T: the Reconciliation
T: the Olive Branch Hornpipe
%T: Humphrey's Reel
%T: Crannciuil Umfrei
O: Ryans 1883
R: reel
B: O'Neill's 1850 (hornpipe)
B: Ryan’s "Mammoth Collection", 1883, titled “The Olive Branch”
D: Matt Molloy & Sean Keane: Contentment is Wealth.
Z: id:hn-reel-95
M: C|
L: 1/8
K: A
|: "A"A2 c{B}A eAfA | eAfA "E7"ecBc | "A"A2 c{B}A eAfA | "(E)"ecBc "E7"AFEF | "A"A2 c{B}A eAfA |
| eAfA "E7"ecBc | "A"ABAF EAcf | "E7"ecBc "A"A4 :: "A"A2{B}ce a3f | "E7"efed cdcB |
| "A"A2{B}ce a3g | "Bm"fbba "E7"gefg | "A"a2ae faec | "Bm"dBcA "E7"BAFG | "A"ABAF EAcf | "E7"ecBc "A"A4 :|

%%sep 1 1 500

